X:96
T:Liam's First
R:jig
C:Paul S. Cranford
O:Cape Breton Island
S:http://www.cranfordpub.com
D:currently unrecorded
B:currently unpublished in book form
Z:psc, (re-formatted,updated 9/17/04)
N:
H:                                                        copyrights Cranford Publications, SOCAN
L:1/8
Q:300
M:6/8
K:G
D|G2 G ABG|ABG E2 D|G2 G ABd|egB AGE|
G2 G ABG|ABG E2 D|GAB dGB|AGG G2:|
|:B/d/|edd Bgd|edB ABd|edd gdd|BAG ABA|
GAB dgd|edB ABA|GAB dGB|AGG G2:|
